modules/hawcons-stroke/icons/icon-32-clipboard-edit.svg

<?xml version="1.0" encoding="UTF-8" standalone="no"?>
<svg width="32px" height="32px" viewBox="0 0 32 32" version="1.1" xmlns="http://www.w3.org/2000/svg" xmlns:xlink="http://www.w3.org/1999/xlink" xmlns:sketch="http://www.bohemiancoding.com/sketch/ns">
    <!-- Generator: Sketch 3.0.3 (7891) - http://www.bohemiancoding.com/sketch -->
    <title>icon 32 clipboard edit</title>
    <desc>Created with Sketch.</desc>
    <defs></defs>
    <g id="Page-1" stroke="none" stroke-width="1" fill="none" fill-rule="evenodd" sketch:type="MSPage">
        <g id="icon-32-clipboard-edit" sketch:type="MSArtboardGroup" fill="#929292">
            <path d="M26.4432278,13.1503345 L15.1570131,24.4499064 L15.1570131,24.4499064 L12.5514465,21.8443397 L23.8435383,10.5506451 L26.4432278,13.1503345 L26.4432278,13.1503345 L26.4432278,13.1503345 Z M27.1499164,12.4428096 L28.8790954,10.711584 C29.269069,10.3211489 29.266195,9.68650423 28.8743,9.29568497 L27.6944866,8.11910998 C27.3018646,7.72756564 26.6692577,7.72452466 26.2779126,8.11592531 L24.5505949,9.84348817 L27.1499164,12.4428096 L27.1499164,12.4428096 L27.1499164,12.4428096 Z M11.9037061,22.6108129 L11.2641602,25.7235103 L14.3990645,25.1061713 L11.9037061,22.6108129 L11.9037061,22.6108129 L11.9037061,22.6108129 Z M22,19 L22,28.9964051 C22,30.1102368 21.1057238,31 20.0025781,31 L4.99742191,31 C3.89092539,31 3,30.10296 3,28.9964051 L3,8.00359486 C3,6.88976324 3.89427625,6 4.99742191,6 L6.00000577,6 C6.00262776,4.89128252 6.89828672,4 8.00276013,4 L9.00000045,4 L9.00000045,4 C9.00089981,2.33812603 10.3478441,1 12.0092545,1 L12.9907455,1 C14.6497738,1 15.9990959,2.34299141 15.9999995,4 L16.9972399,4 C18.1048269,4 18.9973726,4.89497907 18.9999942,6 L18.9999942,6 L20.0025781,6 C21.1090746,6 22,6.89703997 22,8.00359486 L22,11 L25.5801067,7.41989327 C26.372781,6.62721897 27.6313906,6.6313906 28.4102504,7.41025036 L29.5897496,8.58974962 C30.3661881,9.36618809 30.3642921,10.6357079 29.5801067,11.4198932 L22,19 L22,19 L22,19 Z M21,12 L21,8.00307055 C21,7.44908998 20.5452911,7 20.0000398,7 L18.9999942,7 L18.9999942,7 C18.9973722,8.10871748 18.1017133,9 16.9972399,9 L8.00276013,9 C6.89517314,9 6.00262739,8.10502093 6.00000579,7 L4.9999602,7 C4.44769743,7 4,7.43891776 4,8.00307055 L4,28.9969294 C4,29.55091 4.45470893,30 4.9999602,30 L20.0000398,30 C20.5523026,30 21,29.5610822 21,28.9969294 L21,20 L15,26 L10,27 L11,22 L21,12 L21,12 L21,12 Z M10,5 L10,3.99791312 C10,2.89826062 10.897616,2 12.0048815,2 L12.9951185,2 C14.1061002,2 15,2.89449617 15,3.99791312 L15,5 L17.0044225,5 C17.555163,5 18,5.44724809 18,5.99895656 L18,7.00104344 C18,7.55733967 17.5542648,8 17.0044225,8 L7.9955775,8 C7.44483697,8 7,7.55275191 7,7.00104344 L7,5.99895656 C7,5.44266033 7.44573523,5 7.9955775,5 L10,5 L10,5 Z M12.5,5 C12.7761424,5 13,4.77614239 13,4.5 C13,4.22385761 12.7761424,4 12.5,4 C12.2238576,4 12,4.22385761 12,4.5 C12,4.77614239 12.2238576,5 12.5,5 L12.5,5 L12.5,5 Z" id="clipboard-edit" sketch:type="MSShapeGroup"></path>
        </g>
    </g>
</svg>

<svg width="32" height="32" xmlns="http://www.w3.org/2000/svg"><path d="M26.443 13.15l-11.286 11.3-2.606-2.606 11.293-11.293 2.6 2.6zm.707-.707l1.73-1.731c.39-.39.386-1.025-.006-1.416l-1.18-1.177a1.001 1.001 0 0 0-1.416-.003L24.55 9.843l2.599 2.6zM11.904 22.61l-.64 3.113 3.135-.618-2.495-2.495zM22 19v9.996A1.996 1.996 0 0 1 20.003 31H4.997A1.998 1.998 0 0 1 3 28.996V8.004C3 6.89 3.894 6 4.997 6H6c.003-1.109.898-2 2.003-2H9c0-1.662 1.348-3 3.01-3h.98A3.007 3.007 0 0 1 16 4h.997c1.108 0 2 .895 2.003 2h1.003C21.109 6 22 6.897 22 8.004V11l3.58-3.58a1.994 1.994 0 0 1 2.83-.01l1.18 1.18a2.003 2.003 0 0 1-.01 2.83L22 19zm-1-7V8.003C21 7.45 20.545 7 20 7h-1a2.001 2.001 0 0 1-2.003 2H8.003c-1.108 0-2-.895-2.003-2H5c-.552 0-1 .439-1 1.003v20.994C4 29.55 4.455 30 5 30h15c.552 0 1-.439 1-1.003V20l-6 6-5 1 1-5 10-10zM10 5V3.998C10 2.898 10.898 2 12.005 2h.99C14.106 2 15 2.894 15 3.998V5h2.004c.551 0 .996.447.996.999v1.002a.994.994 0 0 1-.996.999H7.996A.997.997 0 0 1 7 7.001V5.999C7 5.443 7.446 5 7.996 5H10zm2.5 0a.5.5 0 1 0 0-1 .5.5 0 0 0 0 1z" fill="#929292" fill-rule="evenodd"/></svg>
